X: 2093
T: Barrowburn
B: nick
M:4/4
Q: 1/4=100
K:Dmajor
V:1 
A2|:D2 DE FA Ad|B2 BA Bd dB|A2 AB d2 de|fe dB AF EF|
 D2 DE FA Ad|B2 BA Bd de|f2 af eg fe|1 dB AB d2 D2:|2 dB AB d2||
 |:cd|e2 ef ec BA|f2 fg fd BA|g2 ga ge cA|a2 ag f2 ef|
 g2 ga ge cA|a2 ag f2 ef|g2 ag f2 ed|BA AB d2:|
% abcbook-tune_id 63455fb6fa89c956d798b156
% abcbook-link-0 https://www.youtube.com/watch?v=UYONPljgBlA
% abcbook-link-title-0 Barrowburn

% abcbook-boost 0
% abcbook-tablature 
% abcbook-transpose 
% abcbook-lastupdated 1666935445346
% abcbook-soundfonts 
% abcbook-repeats 3


